Newaita/actions/24/view-catalog.svg

<svg height="24" viewBox="0 0 24 24" width="24" xmlns="http://www.w3.org/2000/svg"><g fill="#424242"><path d="m6.449219 6.140625h6.945312c.273438 0 .496094.222656.496094.496094 0 .273437-.222656.496093-.496094.496093h-6.945312c-.273438 0-.496094-.222656-.496094-.496093 0-.273438.222656-.496094.496094-.496094zm0 0"/><path d="m6.449219 9.117188h6.945312c.273438 0 .496094.222656.496094.496093 0 .273438-.222656.496094-.496094.496094h-6.945312c-.273438 0-.496094-.222656-.496094-.496094 0-.273437.222656-.496093.496094-.496093zm0 0"/><path d="m6.449219 12.09375h2.976562c.273438 0 .496094.222656.496094.496094 0 .273437-.222656.496094-.496094.496094h-2.976562c-.273438 0-.496094-.222657-.496094-.496094 0-.273438.222656-.496094.496094-.496094zm0 0"/><path d="m3.96875 2.171875c-1.097656 0-1.984375.886719-1.984375 1.984375v15.875c0 1.101562.886719 1.988281 1.984375 1.988281h5.953125v-1.988281h-4.960937c-.550782 0-.992188-.441406-.992188-.992188v-13.890624c0-.550782.441406-.992188.992188-.992188h9.921874c.550782 0 .992188.441406.992188.992188v4.960937h1.984375v-5.953125c0-1.097656-.882813-1.984375-1.984375-1.984375zm0 0"/><path d="m12.898438 12.09375c-.546876 0-.992188.445312-.992188.992188v7.941406c0 .546875.445312.992187.992188.992187h7.941406c.546875 0 .992187-.445312.992187-.992187v-7.941406c0-.546876-.445312-.992188-.992187-.992188zm1.488281 1.984375h4.960937c.277344 0 .496094.222656.496094.496094v4.960937c0 .277344-.21875.496094-.496094.496094h-4.960937c-.273438 0-.496094-.21875-.496094-.496094v-4.960937c0-.273438.222656-.496094.496094-.496094zm0 0"/></g></svg>

<?xml version="1.0" encoding="UTF-8"?>
<svg xmlns="http://www.w3.org/2000/svg" xmlns:xlink="http://www.w3.org/1999/xlink" width="24px" height="24px" viewBox="0 0 24 24" version="1.1">
<g id="surface1">
<path style=" stroke:none;fill-rule:nonzero;fill:rgb(25.882354%,25.882354%,25.882354%);fill-opacity:1;" d="M 6.449219 6.140625 L 13.394531 6.140625 C 13.667969 6.140625 13.890625 6.363281 13.890625 6.636719 C 13.890625 6.910156 13.667969 7.132812 13.394531 7.132812 L 6.449219 7.132812 C 6.175781 7.132812 5.953125 6.910156 5.953125 6.636719 C 5.953125 6.363281 6.175781 6.140625 6.449219 6.140625 Z M 6.449219 6.140625 "/>
<path style=" stroke:none;fill-rule:nonzero;fill:rgb(25.882354%,25.882354%,25.882354%);fill-opacity:1;" d="M 6.449219 9.117188 L 13.394531 9.117188 C 13.667969 9.117188 13.890625 9.339844 13.890625 9.613281 C 13.890625 9.886719 13.667969 10.109375 13.394531 10.109375 L 6.449219 10.109375 C 6.175781 10.109375 5.953125 9.886719 5.953125 9.613281 C 5.953125 9.339844 6.175781 9.117188 6.449219 9.117188 Z M 6.449219 9.117188 "/>
<path style=" stroke:none;fill-rule:nonzero;fill:rgb(25.882354%,25.882354%,25.882354%);fill-opacity:1;" d="M 6.449219 12.09375 L 9.425781 12.09375 C 9.699219 12.09375 9.921875 12.316406 9.921875 12.589844 C 9.921875 12.863281 9.699219 13.085938 9.425781 13.085938 L 6.449219 13.085938 C 6.175781 13.085938 5.953125 12.863281 5.953125 12.589844 C 5.953125 12.316406 6.175781 12.09375 6.449219 12.09375 Z M 6.449219 12.09375 "/>
<path style=" stroke:none;fill-rule:nonzero;fill:rgb(25.882354%,25.882354%,25.882354%);fill-opacity:1;" d="M 3.96875 2.171875 C 2.871094 2.171875 1.984375 3.058594 1.984375 4.15625 L 1.984375 20.03125 C 1.984375 21.132812 2.871094 22.019531 3.96875 22.019531 L 9.921875 22.019531 L 9.921875 20.03125 L 4.960938 20.03125 C 4.410156 20.03125 3.96875 19.589844 3.96875 19.039062 L 3.96875 5.148438 C 3.96875 4.597656 4.410156 4.15625 4.960938 4.15625 L 14.882812 4.15625 C 15.433594 4.15625 15.875 4.597656 15.875 5.148438 L 15.875 10.109375 L 17.859375 10.109375 L 17.859375 4.15625 C 17.859375 3.058594 16.976562 2.171875 15.875 2.171875 Z M 3.96875 2.171875 "/>
<path style=" stroke:none;fill-rule:nonzero;fill:rgb(25.882354%,25.882354%,25.882354%);fill-opacity:1;" d="M 12.898438 12.09375 C 12.351562 12.09375 11.90625 12.539062 11.90625 13.085938 L 11.90625 21.027344 C 11.90625 21.574219 12.351562 22.019531 12.898438 22.019531 L 20.839844 22.019531 C 21.386719 22.019531 21.832031 21.574219 21.832031 21.027344 L 21.832031 13.085938 C 21.832031 12.539062 21.386719 12.09375 20.839844 12.09375 Z M 14.386719 14.078125 L 19.347656 14.078125 C 19.625 14.078125 19.84375 14.300781 19.84375 14.574219 L 19.84375 19.535156 C 19.84375 19.8125 19.625 20.03125 19.347656 20.03125 L 14.386719 20.03125 C 14.113281 20.03125 13.890625 19.8125 13.890625 19.535156 L 13.890625 14.574219 C 13.890625 14.300781 14.113281 14.078125 14.386719 14.078125 Z M 14.386719 14.078125 "/>
</g>
</svg>
